assets/svg/icon_article_h1_on.svg

<svg width="24" height="24" viewBox="0 0 24 24" fill="none" xmlns="http://www.w3.org/2000/svg">
<path fill-rule="evenodd" clip-rule="evenodd" d="M4.31802 4.31802C3 5.63604 3 7.75736 3 12C3 16.2426 3 18.364 4.31802 19.682C5.63604 21 7.75736 21 12 21C16.2426 21 18.364 21 19.682 19.682C21 18.364 21 16.2426 21 12C21 7.75736 21 5.63604 19.682 4.31802C18.364 3 16.2426 3 12 3C7.75736 3 5.63604 3 4.31802 4.31802ZM8.50039 9C8.50039 8.66863 8.23176 8.4 7.90039 8.4C7.56902 8.4 7.30039 8.66863 7.30039 9V12V15C7.30039 15.3314 7.56902 15.6 7.90039 15.6C8.23176 15.6 8.50039 15.3314 8.50039 15V12.6H11.3004V15C11.3004 15.3314 11.569 15.6 11.9004 15.6C12.2318 15.6 12.5004 15.3314 12.5004 15V12V9C12.5004 8.66863 12.2318 8.4 11.9004 8.4C11.569 8.4 11.3004 8.66863 11.3004 9V11.4H8.50039V9ZM14.2012 8.4C13.8698 8.4 13.6012 8.66863 13.6012 9C13.6012 9.33137 13.8698 9.6 14.2012 9.6H15.6012V15C15.6012 15.3314 15.8698 15.6 16.2012 15.6C16.5325 15.6 16.8012 15.3314 16.8012 15V9C16.8012 8.66863 16.5325 8.4 16.2012 8.4H14.2012Z" fill="#0166FF"/>
</svg>

<svg xmlns="http://www.w3.org/2000/svg" width="24" height="24" fill="none"><path fill="#0166FF" fill-rule="evenodd" d="M4.318 4.318C3 5.636 3 7.758 3 12s0 6.364 1.318 7.682S7.758 21 12 21s6.364 0 7.682-1.318S21 16.242 21 12s0-6.364-1.318-7.682S16.242 3 12 3 5.636 3 4.318 4.318M8.5 9a.6.6 0 0 0-1.2 0v6a.6.6 0 1 0 1.2 0v-2.4h2.8V15a.6.6 0 1 0 1.2 0V9a.6.6 0 1 0-1.2 0v2.4H8.5zm5.701-.6a.6.6 0 1 0 0 1.2h1.4V15a.6.6 0 1 0 1.2 0V9a.6.6 0 0 0-.6-.6z" clip-rule="evenodd"/></svg>
